X: 21062
T: Juniper Hill
R: jig
M: 6/8
K: Gmajor
|:B/c/|dBG cAF|GBd g2f|edc BAG|FAA A2 B/c/|
dBG cAF|GBd g2b|agf ed^c|d3 d2:|
|:f/g/|afd dfg|agd g2B|cec BdB|cAA A2 B/c/|
dBd ece|fdf g2e|dcB AGF|G3 G2:|

